!!!!SEGMENT: Snf0118-Ecce_Maria_genuit_I--Regensburg_C120.krn
!!!id: Snf0118
!!!AGN: Motet
!!!SCT: Edwards, Gasch, Tröster (2021)
!!!voices: 4
!!!COM: Ludwig Senfl
!!!OTL: Ecce Maria genuit I (Regensburg C120)
**kern	**text	**kern	**text	**kern	**text	**kern	**text
*part4	*part4	*part3	*part3	*part2	*part2	*part1	*part1
*staff4	*staff4	*staff3	*staff3	*staff2	*staff2	*staff1	*staff1
*I"Bassus	*	*I"Tenor	*	*I"Altus	*	*I"Superius	*
*I'B	*	*I'T	*	*I'A	*	*I'S	*
*clefF4	*	*clefGv2	*	*clefGv2	*	*clefG2	*
*k[b-e-]	*	*k[b-]	*	*k[b-e-]	*	*k[b-]	*
*B-:	*	*F:	*	*B-:	*	*F:	*
*M2/1	*	*M2/1	*	*M2/1	*	*M2/1	*
*met(C|)	*	*met(C|)	*	*met(C|)	*	*met(C|)	*
!!section: Prima pars: Ecce Maria genuit
!!!OMD: Prima pars: Ecce Maria genuit
=1	=1	=1	=1	=1	=1	=1	=1
0r	.	0r	.	0r	.	1b-y	Ec-
.	.	.	.	.	.	1f	-ce
=2	=2	=2	=2	=2	=2	=2	=2
0r	.	0r	.	1r	.	1f	Ma-
.	.	.	.	1e-y	Ec-	1g	.
=3	=3	=3	=3	=3	=3	=3	=3
0r	.	0r	.	1B-y	-ce	[0g	-ri-
.	.	.	.	1B-y	Ma-	.	.
=4	=4	=4	=4	=4	=4	=4	=4
0r	.	0r	.	1c	.	0g_	.
.	.	.	.	1c	-ri-	.	.
=5	=5	=5	=5	=5	=5	=5	=5
0r	.	0r	.	1c	-a	0g]	.
.	.	.	.	1e-y	ge-	.	.
=6	=6	=6	=6	=6	=6	=6	=6
0r	.	0r	.	1d	-nu-	1b-y	-a
.	.	.	.	1c	-it	1a	ge-
=7	=7	=7	=7	=7	=7	=7	=7
0r	.	0r	.	2r	.	1g	-nu-
.	.	.	.	2c	no-	.	.
.	.	.	.	2A	-bis	1a	-it
.	.	.	.	[2d	Sal-	.	.
=8	=8	=8	=8	=8	=8	=8	=8
0E-y	Ec-	0r	.	2d]	.	0g	no-
.	.	.	.	4c	.	.	.
.	.	.	.	4B-y	.	.	.
.	.	.	.	1c	.	.	.
=9	=9	=9	=9	=9	=9	=9	=9
1BB-y	-ce	0r	.	1d	.	1.f	.
1BB-y	Ma-	.	.	1d	-va-	.	.
.	.	.	.	.	.	2g	.
=10	=10	=10	=10	=10	=10	=10	=10
1C	.	0r	.	1c	-to-	2a	.
.	.	.	.	.	.	2g	.
[1C	-ri-	.	.	1c	-rem,	4a	.
.	.	.	.	.	.	4g	.
.	.	.	.	.	.	[2cc	.
=11	=11	=11	=11	=11	=11	=11	=11
1C]	.	0r	.	2r	.	2cc]	.
.	.	.	.	1c	ec-	4b-y	.
.	.	.	.	.	.	4a	.
1C	-a	.	.	.	.	1g	-bis,
.	.	.	.	4B-y	-ce	.	.
.	.	.	.	4A	.	.	.
=12	=12	=12	=12	=12	=12	=12	=12
0E-y	ge-	0B-y	Ec-	4G	.	2r	.
.	.	.	.	4F	.	.	.
.	.	.	.	1e-y	Ma-	2g	ec-
.	.	.	.	.	.	2.g	-ce
.	.	.	.	4d	.	.	.
.	.	.	.	4c	.	4a	.
=13	=13	=13	=13	=13	=13	=13	=13
0D	-nu-	1F	-ce	2B-y	.	2b-y	.
.	.	.	.	1c	-ri-	1a	.
.	.	1F	Ma-	.	.	.	.
.	.	.	.	2BnXi	.	4g	.
.	.	.	.	.	.	4f	.
=14	=14	=14	=14	=14	=14	=14	=14
0C	-it	1G	.	1c	-a	2.e	.
.	.	.	.	.	.	4d	.
.	.	[1G	-ri-	2C	ge-	4e	.
.	.	.	.	.	.	4f	.
.	.	.	.	[2E-y	-nu-	[2g	.
=15	=15	=15	=15	=15	=15	=15	=15
0r	.	1G]	.	4E-]	.	4g]	.
.	.	.	.	4D	.	4f	.
.	.	.	.	4C	.	4e	.
.	.	.	.	4BB-y	.	4d	.
.	.	1G	-a	1C	.	1e	.
=16	=16	=16	=16	=16	=16	=16	=16
0D	no-	0r	.	4BB-y	-it	2r	.
.	.	.	.	4C	.	.	.
.	.	.	.	4D	.	2.f	Ma-
.	.	.	.	4E-y	.	.	.
.	.	.	.	2.F	.	.	.
.	.	.	.	.	.	4g	.
.	.	.	.	.	.	4a	.
.	.	.	.	4G	.	4b-y	.
=17	=17	=17	=17	=17	=17	=17	=17
0C	-bis	0r	.	2A	.	2cc	.
.	.	.	.	1B-y	no-	2dd	.
.	.	.	.	.	.	1ee-X	-ri-
.	.	.	.	2A	.	.	.
=18	=18	=18	=18	=18	=18	=18	=18
0BB-y	.	0B-y	ge-	4B-y	.	2dd	-a
.	.	.	.	4c	.	.	.
.	.	.	.	4d	.	2.d	ge-
.	.	.	.	4e-y	.	.	.
.	.	.	.	[1f	.	.	.
.	.	.	.	.	.	4e	.
.	.	.	.	.	.	4f	.
.	.	.	.	.	.	4g	.
=19	=19	=19	=19	=19	=19	=19	=19
0r	.	0A	-nu-	2f]	.	4a	.
.	.	.	.	.	.	4b-y	.
.	.	.	.	4e-y	.	2cc	.
.	.	.	.	4d	.	.	.
.	.	.	.	2e-y	.	2c	.
.	.	.	.	[2c	.	[2e	-nu-
=20	=20	=20	=20	=20	=20	=20	=20
0r	.	0G	-it	2c]	.	2e]	.
.	.	.	.	4B-y	.	4d	.
.	.	.	.	4A	.	4c	.
.	.	.	.	1B-y	.	1d	-it
=21	=21	=21	=21	=21	=21	=21	=21
0r	.	0A	no-	1c	.	1.c	no-
.	.	.	.	1F	.	.	.
.	.	.	.	.	.	2d	.
=22	=22	=22	=22	=22	=22	=22	=22
1r	.	0G	-bis	1C	-bis	2e	.
.	.	.	.	.	.	1f	.
1C	Sa-	.	.	2r	.	.	.
.	.	.	.	2c	Sal-	2e	.
=23	=23	=23	=23	=23	=23	=23	=23
1D	.	0F	.	2.B-y	-va-	1f	-bis
.	.	.	.	4A	.	.	.
1D	-va-	.	.	1d	-to-	2r	.
.	.	.	.	.	.	2f	Sal-
=24	=24	=24	=24	=24	=24	=24	=24
1C	-to-	1r	.	2G	-rem,	2.e	-va
.	.	.	.	2.c	.	.	.
.	.	.	.	.	.	4d	.
1C	-rem,	1G	Sal-	.	.	1g	to-
.	.	.	.	4B-y	.	.	.
.	.	.	.	2G	.	.	.
=25	=25	=25	=25	=25	=25	=25	=25
0r	.	1A	.	4F	.	1c	-rem,
.	.	.	.	4G	.	.	.
.	.	.	.	4A	.	.	.
.	.	.	.	4B-y	.	.	.
.	.	1A	-va-	2.c	.	2r	.
.	.	.	.	.	.	[2cc	quem
.	.	.	.	4d	.	.	.
=26	=26	=26	=26	=26	=26	=26	=26
1r	.	1G	-to-	2e-y	.	2cc]	.
.	.	.	.	1f	quem	2b-y	Jo-
1C	Sal-	1G	-rem,	.	.	1cc	-an-
.	.	.	.	2enXi	.	.	.
=27	=27	=27	=27	=27	=27	=27	=27
1D	.	0F	quem	4f	.	2a	.
.	.	.	.	4e-y	.	.	.
.	.	.	.	4d	.	2.b-y	.
.	.	.	.	4c	.	.	.
1D	-va-	.	.	1B-y	.	.	.
.	.	.	.	.	.	4cc	.
.	.	.	.	.	.	2dd	.
=28	=28	=28	=28	=28	=28	=28	=28
1C	-to-	0G	Jo-	1c	.	2.ee-X	.
.	.	.	.	.	.	4dd	.
1C	-rem,	.	.	2r	.	2cc	.
.	.	.	.	2c	Jo-	4b-y	.
.	.	.	.	.	.	4a	.
=29	=29	=29	=29	=29	=29	=29	=29
0r	.	0B-y	-an-	2d	-an-	2g	.
.	.	.	.	2D	.	1f	.
.	.	.	.	1G	.	.	.
.	.	.	.	.	.	2e	.
=30	=30	=30	=30	=30	=30	=30	=30
0BB-y	quem	0B-y	-nes	2F	.	1f	-nes,
.	.	.	.	2.f	.	.	.
.	.	.	.	.	.	2r	.
.	.	.	.	4e-y	.	.	.
.	.	.	.	2d	.	2b-y	Jo-
=31	=31	=31	=31	=31	=31	=31	=31
0C	Jo-	0r	.	2c	-nes	2a	-an-
.	.	.	.	1e-y	vi-	1cc	.
.	.	.	.	4d	.	4b-y	.
.	.	.	.	4c	.	4a	.
=32	=32	=32	=32	=32	=32	=32	=32
0E-y	-an-	0G	vi-	2B-y	.	0g	-nes
.	.	.	.	1c	.	.	.
.	.	.	.	4B-y	.	.	.
.	.	.	.	4A	.	.	.
=33	=33	=33	=33	=33	=33	=33	=33
0E-y	-nes	0B-y	-dens	2G	.	1r	.
.	.	.	.	1B-y	.	.	.
.	.	.	.	.	.	2r	.
.	.	.	.	4A	.	2g	vi-
.	.	.	.	4G	.	.	.
=34	=34	=34	=34	=34	=34	=34	=34
0r	.	0c	.	2F	.	2a	-dens,
.	.	.	.	2E-y	-dens,	2g	.
.	.	.	.	1A	vi-	1cc	.
=35	=35	=35	=35	=35	=35	=35	=35
0r	.	0d	.	2G	.	2b-y	.
.	.	.	.	2F	.	1a	.
.	.	.	.	1B-y	.	.	.
.	.	.	.	.	.	2g	.
=36	=36	=36	=36	=36	=36	=36	=36
0C	vi-	0c	.	2A	.	1.cc	.
.	.	.	.	2G	.	.	.
.	.	.	.	[1g	.	.	.
.	.	.	.	.	.	4b-y	.
.	.	.	.	.	.	4a	.
=37	=37	=37	=37	=37	=37	=37	=37
0E-y	-dens	0B-y	.	2g]	.	1g	.
.	.	.	.	2f	.	.	.
.	.	.	.	2.e-y	.	2r	.
.	.	.	.	.	.	2g	vi-
.	.	.	.	4d	.	.	.
=38	=38	=38	=38	=38	=38	=38	=38
0F	.	0A	.	1c	.	2.a	-dens
.	.	.	.	.	.	4g	.
.	.	.	.	2F	-dens	4a	.
.	.	.	.	.	.	4b-y	.
.	.	.	.	2f	ex-	[2cc	.
=39	=39	=39	=39	=39	=39	=39	=39
0G	.	0r	.	2e-y	.	2cc]	.
.	.	.	.	1d	.	4b-y	.
.	.	.	.	.	.	4a	.
.	.	.	.	.	.	1b-y	.
.	.	.	.	4c	.	.	.
.	.	.	.	4B-y	.	.	.
=40	=40	=40	=40	=40	=40	=40	=40
0F	.	1r	.	4A	.	1.cc	ex-
.	.	.	.	4G	.	.	.
.	.	.	.	2.f	-cla-	.	.
.	.	1F	ex-	.	.	.	.
.	.	.	.	4e-y	.	.	.
.	.	.	.	2f	.	2a	-cla-
=41	=41	=41	=41	=41	=41	=41	=41
0E-y	.	0G	-cla-	2B-y	.	4b-y	-ma-
.	.	.	.	.	.	4a	.
.	.	.	.	2.c	-ma-	4g	.
.	.	.	.	.	.	4f	.
.	.	.	.	.	.	1g	.
.	.	.	.	4B-y	.	.	.
.	.	.	.	2c	.	.	.
=42	=42	=42	=42	=42	=42	=42	=42
0D	.	1B-y	-ma-	0F	-bat,	2r	.
.	.	.	.	.	.	2.f	-bat,
.	.	1A	.	.	.	.	.
.	.	.	.	.	.	4g	.
.	.	.	.	.	.	2a	.
=43	=43	=43	=43	=43	=43	=43	=43
0r	.	1B-y	-bat,	2r	.	4g	.
.	.	.	.	.	.	4f	.
.	.	.	.	2f	di-	1b-y	di-
.	.	1c	.	2.e-y	.	.	.
.	.	.	.	.	.	2a	.
.	.	.	.	4f	.	.	.
=44	=44	=44	=44	=44	=44	=44	=44
1r	.	0G	di-	2g	.	2.b-y	.
.	.	.	.	2d	.	.	.
.	.	.	.	.	.	4cc	.
1BB-y	ex-	.	.	1d	-cens,	1dd	.
=45	=45	=45	=45	=45	=45	=45	=45
0C	-cla-	0G	-cens,	2r	.	2g	.
.	.	.	.	1e-y	‘Ec-	1cc	.
.	.	.	.	4d	-ce	4b-y	.
.	.	.	.	4c	.	4a	.
=46	=46	=46	=46	=46	=46	=46	=46
1E-y	-ma-	1r	.	2.B-y	a-	1g	-cens,
.	.	.	.	4c	.	.	.
1D	.	1B-y	‘Ec-	4d	.	1r	.
.	.	.	.	4e-y	.	.	.
.	.	.	.	2f	-gnus	.	.
=47	=47	=47	=47	=47	=47	=47	=47
1E-y	-bat,	1B-y	-ce	1g	De-	2r	.
.	.	.	.	.	.	1g	‘Ec-
1F	.	1A	a-	1c	-i.	.	.
.	.	.	.	.	.	2f	.
=48	=48	=48	=48	=48	=48	=48	=48
0C	di-	1G	-gnus	2r	.	2g	.
.	.	.	.	2c	Ec-	2c	-ce
.	.	1A	Dei-	2.c	-ce	2r	.
.	.	.	.	.	.	[2cc	a-
.	.	.	.	4d	.	.	.
=49	=49	=49	=49	=49	=49	=49	=49
0C	-cens,	[0G	-i.	2e-y	.	4cc]	.
.	.	.	.	.	.	4dd	.
.	.	.	.	2c	qui	1ee-X	.
.	.	.	.	2.e-y	tol-	.	.
.	.	.	.	.	.	4dd	.
.	.	.	.	4f	.	4cc	.
=50	=50	=50	=50	=50	=50	=50	=50
1r	.	0G]	.	2g	.	2b-y	.
.	.	.	.	1e-y	.	2cc	.
1E-y	‘Ec-	.	.	.	.	1g	-gnus
.	.	.	.	4d	.	.	.
.	.	.	.	4c	.	.	.
=51	=51	=51	=51	=51	=51	=51	=51
1E-y	-ce	0r	.	2B-y	.	2r	.
.	.	.	.	2c	.	2g	De-
1D	a-	.	.	2d	.	4f	-i.
.	.	.	.	.	.	4g	.
.	.	.	.	4c	.	4a	.
.	.	.	.	4B-y	.	4b-y	.
=52	=52	=52	=52	=52	=52	=52	=52
1C	-gnus	0r	.	4A	.	2.cc	.
.	.	.	.	4G	.	.	.
.	.	.	.	1c	.	.	.
.	.	.	.	.	.	4b-y	.
1D	De-	.	.	.	.	2a	Ec-
.	.	.	.	2BnXi	.	4g	.
.	.	.	.	.	.	4f	.
=53	=53	=53	=53	=53	=53	=53	=53
0C	-i.	0r	.	1c	-lit,	2e	-ce
.	.	.	.	.	.	1g	qui
.	.	.	.	2r	.	.	.
.	.	.	.	[2G	ec-	4f	.
.	.	.	.	.	.	4e	.
=54	=54	=54	=54	=54	=54	=54	=54
0r	.	1B-y	Ec-	4G]	.	2d	.
.	.	.	.	4A	.	.	.
.	.	.	.	4B-y	.	4G	.
.	.	.	.	4c	.	4A	.
.	.	1B-y	-ce	4d	.	4B-y	.
.	.	.	.	4e-y	.	4c	.
.	.	.	.	[2f	.	4d	.
.	.	.	.	.	.	4e	.
=55	=55	=55	=55	=55	=55	=55	=55
0r	.	1A	.	4f]	.	4f	.
.	.	.	.	4e-y	.	4g	.
.	.	.	.	2f	.	4a	.
.	.	.	.	.	.	4f	.
.	.	1G	qui	2B-y	.	2.b-y	tol-
.	.	.	.	[2d	.	.	.
.	.	.	.	.	.	8aL	.
.	.	.	.	.	.	8gJ	.
=56	=56	=56	=56	=56	=56	=56	=56
0r	.	0A	tol-	2d]	.	2f	.
.	.	.	.	4c	.	1g	.
.	.	.	.	4B-y	.	.	.
.	.	.	.	1c	-ce	.	.
.	.	.	.	.	.	2f#i	.
=57	=57	=57	=57	=57	=57	=57	=57
1E-y	Ec-	0G	-lit	2r	.	0g	-lit
.	.	.	.	4C	qui	.	.
.	.	.	.	4D	.	.	.
1E-y	-ce	.	.	4E-y	.	.	.
.	.	.	.	4F	.	.	.
.	.	.	.	4G	.	.	.
.	.	.	.	4A	.	.	.
=58	=58	=58	=58	=58	=58	=58	=58
1D	.	0r	.	4B-y	.	0r	.
.	.	.	.	4c	.	.	.
.	.	.	.	4d	.	.	.
.	.	.	.	4B-y	.	.	.
1C	qui	.	.	2.e-y	tol-	.	.
.	.	.	.	8dL	.	.	.
.	.	.	.	8cJ	.	.	.
=59	=59	=59	=59	=59	=59	=59	=59
0D	tol-	0F	pec-	2B-y	.	2r	.
.	.	.	.	1c	.	1a	pec-
.	.	.	.	2B-y	.	4g	.
.	.	.	.	.	.	4f	.
=60	=60	=60	=60	=60	=60	=60	=60
0C	-lit	1G	-ca-	[0c	-lit	1.e	-ca-
.	.	1A	.	.	.	.	.
.	.	.	.	.	.	2c	.
=61	=61	=61	=61	=61	=61	=61	=61
0r	.	0A	-ta	1c]	.	1e	-ta
.	.	.	.	2r	.	1f	.
.	.	.	.	2F	pec-	.	.
=62	=62	=62	=62	=62	=62	=62	=62
1r	.	0G	mun-	2B-y	-ca-	2g	mun-
.	.	.	.	2G	.	2.b-y	.
[1BB-y	pec-	.	.	2.B-y	-ta	.	.
.	.	.	.	.	.	4a	.
.	.	.	.	.	.	[2g	.
.	.	.	.	4c	.	.	.
=63	=63	=63	=63	=63	=63	=63	=63
1BB-]	.	0G	-di,’	1d	mun-	4g]	.
.	.	.	.	.	.	4f	.
.	.	.	.	.	.	1f	.
1C	-ca-	.	.	[1c	.	.	.
.	.	.	.	.	.	2e	.
=64	=64	=64	=64	=64	=64	=64	=64
1D	.	0F	.	2c]	.	0f	-di,
.	.	.	.	4B-y	.	.	.
.	.	.	.	4A	.	.	.
1D	-ta	.	.	2B-y	.	.	.
.	.	.	.	[2A	.	.	.
=65	=65	=65	=65	=65	=65	=65	=65
1C	mun-	0E	.	2A]	.	0r	.
.	.	.	.	4G	.	.	.
.	.	.	.	4F	.	.	.
1C	-di,’	.	.	2A	.	.	.
.	.	.	.	[2G	.	.	.
=66	=66	=66	=66	=66	=66	=66	=66
0BB-y	.	0D	.	2G]	.	1r	.
.	.	.	.	4F	.	.	.
.	.	.	.	4E-y	.	.	.
.	.	.	.	2D	.	1g	pec-
.	.	.	.	[2d	.	.	.
=67	=67	=67	=67	=67	=67	=67	=67
0AA	.	1E	al-	4d]	.	0a	-ca-
.	.	.	.	4c	.	.	.
.	.	.	.	1c	.	.	.
.	.	1F	-le-	.	.	.	.
.	.	.	.	4B-y	.	.	.
.	.	.	.	4A	.	.	.
=68	=68	=68	=68	=68	=68	=68	=68
0GG	.	1G	.	4B-y	.	1d	-ta
.	.	.	.	4G	.	.	.
.	.	.	.	1d	.	.	.
.	.	1G	-lu-	.	.	2.g	.
.	.	.	.	[2e-y	.	.	.
.	.	.	.	.	.	4a	.
=69	=69	=69	=69	=69	=69	=69	=69
0r	.	0G	-ia.	2e-]	.	2b-y	.
.	.	.	.	4d	.	1cc	mun-
.	.	.	.	4c	.	.	.
.	.	.	.	1d	.	.	.
.	.	.	.	.	.	2bnXi	.
=70	=70	=70	=70	=70	=70	=70	=70
1AA	al-	0r	.	1c	-di,’	1cc	.
1BB-y	-le-	.	.	2r	.	2f	.
.	.	.	.	2d	al-	2b-y	.
=71	=71	=71	=71	=71	=71	=71	=71
1C	.	[0Gl	-ia.	2.e-y	-le-	1g	-di,’
.	.	.	.	4d	.	.	.
1C	-lu-	.	.	4c	.	1r	.
.	.	.	.	4B-y	.	.	.
.	.	.	.	[2c	.	.	.
=72	=72	=72	=72	=72	=72	=72	=72
0C	-ia,	0G_	.	2c]	.	2r	.
.	.	.	.	4B-y	.	1g	al-
.	.	.	.	4A	.	.	.
.	.	.	.	2.G	.	.	.
.	.	.	.	.	.	4f	.
.	.	.	.	4A	.	4e	.
=73	=73	=73	=73	=73	=73	=73	=73
1r	.	0G_	.	2B-y	.	2d	.
.	.	.	.	2G	.	2g	.
2r	.	.	.	2.B-y	.	2.g	-le-
2GG	al-	.	.	.	.	.	.
.	.	.	.	4c	.	4a	.
=74	=74	=74	=74	=74	=74	=74	=74
2.GG	-le-	0G_	.	1d	.	2.b-y	.
4AA	.	.	.	.	.	4cc	.
2.BB-y	.	.	.	2r	.	1dd	.
.	.	.	.	2G	-lu-	.	.
8CL	.	.	.	.	.	.	.
8DJ	.	.	.	.	.	.	.
=75	=75	=75	=75	=75	=75	=75	=75
2E-y	.	0G_	.	2.G	.	2r	.
2EE-y	.	.	.	.	.	2.b-y	-lu-
.	.	.	.	4A	.	.	.
2.E-y	-lu-	.	.	2.B-y	.	.	.
.	.	.	.	.	.	4a	.
.	.	.	.	.	.	4g	.
4D	.	.	.	8cL	.	4f	.
.	.	.	.	8dJ	.	.	.
=76	=76	=76	=76	=76	=76	=76	=76
2C	.	0G_	.	2e-y	.	2g	.
2BB-y	.	.	.	1d	.	2d	.
1C	.	.	.	.	.	1e-X	.
.	.	.	.	2c	.	.	.
=77	=77	=77	=77	=77	=77	=77	=77
[0GGl	-ia.	0G_	.	[0dl	-ia.	1.b-y	.
.	.	.	.	.	.	2g	.
=78	=78	=78	=78	=78	=78	=78	=78
00GG]	.	00G]	.	00d]	.	00gl	-ia.
==	==	==	==	==	==	==	==
*-	*-	*-	*-	*-	*-	*-	*-
!!!system-decoration: [*]
!!!RDF**kern: i = editorial accidental
!!!RDF**kern: l = terminal long
!!!PTL: <i> New Senfl Edition: Motets for Four Voices (A-I) </i>
!!!PPR: Hollitzer Verlag
!!!PC#: Denkmäler der Tonkunst in Österreich 163.1
!!!PDT: 2021
!!!PED: Scott Lee Edwards, Stefan Gasch, and Sonja Tröster
!!!YEC: Copyright 2021 Denkmäler der Tonkunst in Österreich
!!!YEM: CC-BY-NC 4.0 (https://creativecommons.org/licenses/by-nc/4.0/legalcode)
!!!EED: Benjamin Ory
!!!EEV: 2023/11/12
!!!verovio: header true
!!!header-left: @{PTL}\n@{PED}, eds.\n@{PC#} (@{PDT})&nbsp;\n
!!!header-right:
!!!header-center:
